X:1
T:Walter Bulwers #2
M:4/4
R:Polka
K:G
D2G2G2FG|A2E2E4|FGA2FGA2|B2G2G2FG|
D2G2G2FG|A2E2E4|FGA2FGA2|G2B2G4:|
K:D
A2A2B2B2 | AGFG A4 |GFEG G4 | FEDE F2 FG |
A2A2B2B2| AGFG A3/2 F | GFEFGABc|d4d4:|
